X:1
T:New Orleans
T:Transcribed from Kentucky Harmony, 1817.
T:E minor                     Robert Boyd, 1817
T:Isaac Watts, 1709 (Hymn 3, Book 2)                    86. 86. (C. M.)
%%score [ 1 2 3 4 ]
L:1/8
Q:1/4=110
M:4/4
K:G
V:1 treble nm="Tr." snm="Tr."
V:2 treble nm="C." snm="C."
V:3 treble-8 nm="T." snm="T."
V:4 bass nm="B." snm="B."
V:1
"_1. Why do we mourn departing friends, Or shake at death's alarms? Tis but the voice that Jesus sends  To  call  them  to   his   arms.  Are we not" B4 | %1
 B2 B2 BA GA | B2 d2 e4 | d4 e2 d2 | B2 d2 d4 | d4 B2 B2 | BA GA B2 d2 | e4 d4 | e2 e2 d2 BA | B8 | %10
 d4 B2 B2 | %11
"_1. tending        up  – ward   too   As  fast  as  time  can move?  Nor would we wish the hours more slow To  keep us from  our    love." B2 B2 BA GA | %12
 B3 A d3 B | A2 Bc d4 | d4 B2 B2 | e2 fe d2 c2 | B4 A4 | B2 d2 d2 BA | B8 |] %19
V:2
"_2. Why should we tremble   to convey  Their bodies to  the tomb? There the dear flesh of  Jesus   lay,  And  left a  long    per – fume. The graves of" E4 | %1
 G2 G2 G2 FE | E2 D2 E4 | A4 G2 A2 | AG E2 D4 | G4 B2 B2 | G2 E2 E2 D2 | E4 A4 | G2 D2 EG ED | E8 | %10
 D4 G2 GA | %11
"_2. all    his    saints   he   blessed, And  softened  eve –  ry  bed;  Where should the dying members rest,  But with the  dy – ing  Head?" B2 (3BAG E2 D2 | %12
 E3 A G3 B | AG E2 D4 | G4 E2 E2 | E2 BA G2 F2 | E4 A4 | G2 D2 D2 EF | E8 |] %19
V:3
"_3. Thence he  arose,   ascending  high, And showed our feet the way; Up to the Lord our flesh shall fly, At  the  great ri – sing    day.  Then let the" E4 | %1
 E2 E2 E2 DE | G2 A2 B4 | d4 B2 A2 | AG E2 D4 | D4 E2 E2 | E2 DE G2 A2 | B4 d4 | B2 A2 AG ED | E8 | %10
 A4 B2 d2 | %11
"_3. last   loud    trum – pet  sound, And  bid  our    kindred      rise;    Awake,  ye   nations  under ground;  Ye  saints, ascend  the   skies." e2 e2 ef ed | %12
 e3 d B3 G | AG E2 D4 | D4 E2 E2 | E2 DE G2 A2 | B4 d4 | B2 A2 AG ED | E8 |] %19
V:4
 E,4 | E,2 E,2 E,2 B,A, | G,2 F,2 E,4 | D,4 E,2 F,2 | E,2 B,,2 D,4 | D,4 E,2 E,2 | %6
 D,2 B,A, G,2 F,2 | E,4 D,4 | B,,2 D,2 A,,2 B,,2 | E,8 | D,4 B,,2 G,F, | E,2 E,2 B,,2 B,,2 | %12
 E,3 F, G,3 D, | %13
"______________________________________________________________________________\nEdited by B. C. Johnston, 2019\n   1. Measure 6, \nTenor\n: last two notes changed from D to E, as in measure 15.\n   2. Measure 19, Bass: note changed from C to E, undoubtedly a misprint (see measure 10)." E,2 B,,C, D,4 | %14
 G,4 B,2 B,2 | B,2 B,A, G,2 F,2 | E,4 D,4 | B,,2 D,2 A,,2 B,,2 | E,8 |] %19

